!!!OTL: 1568. Moralisches Spinnerlied.
!!!ARE: Europa, Mitteleuropa, Deutschland
!!!SCT: E1568
!!!TXL: @@DE
!!!YEM: Copyright 1995, estate of Helmut Schaffrath.
**kern	**text
*ICvox	*
*M2/4	*
*k[b-e-]	*
*B-:	*
=1	=1
!LO:TX:a:t=Leicht.	!
!LO:TX:a:t=Mel. v. H. G. Nägeli 1810.	!
{4b-	Spinn,
8f	Mägd-
8f	-lein
=2	=2
4.b-}	ſpinn!
{8dd	ſo
=3	=3
8cc	wach-
8f	-ſen
8f	dir
8ee-	die
=4	=4
4.dd	Sinn!
8r}	.
=5	=5
{8ff	Wach-
8cc	-ſen
8dd	dir
8b-	die
=6	=6
8cc	gel-
8f	-ben
8f	Haar,
8r}	.
=7	=7
{8ff	kom-
8cc	-men
8dd	dir
8b-	die
=8	=8
8cc	klu-
8f	-gen
8f	Jahr.
8r}	.
=9	=9
{4b-	Spinn,
8cc	Mägd-
8ff	-lein
=10	=10
4dd	ſpinn,
8cc	Mägd-
8ff	-lein
=11	=11
4b-	ſpinn!
4r}	.
==	==
!!!AGN: Staende -, Bauern - Lied, Spinnen; Moral - Lied
!!!ONB: ESAC (Essen Associative Code) Database: ERK3
!!!AMT: simple duple
!!!AIN: vox
!!!EED: Helmut Schaffrath
!!!EEV: 1.0
!!!GTL: Staendelieder (Berufslieder). 6. Bauernlieder (von und gegen Bauern).
!!!URL-scan: https://rosdok.uni-rostock.de/mcrviewer/recordIdentifier/rosdok_ppn745177999/iview2/phys_0404.iview2?x=-673.8885163644129&y=1954.2058730910067&scale=0.41982591625886007&rotation=0&layout=singlePageLayout
!!!ENC: Anna Maria Matuszewska
!!!EEV: 2025/03/01
*-	*-
